!!!OTL: 1332. Kriegsleben. / [Bayrisches Soldatenlied (1815).]
!!!ARE: Europa, Mitteleuropa, Deutschland, Bayern, Franken
!!!SCT: E1332
!!!TXL: @@DE
!!!YEM: Copyright 1995, estate of Helmut Schaffrath.
**kern	**text
*ICvox	*
*M3/4	*
*k[f#]	*
*G:	*
!LO:TX:a:t=Mäßig bewegt.	!
!LO:TX:a:t=v. Ditfurth, bayr. Heerlieder, Nr. 42 u. fränk. VL. II, 257.	!
{4d	Jhr
=1	=1
8g	lu-
8g	-ſti-
4g	-gen
4a	Sol-
=2	=2
8aL	-da-
8bJ	.
4b}	-ten,
{8b	ſeid
8b	ihr
=3	=3
4.a	al-
8g	-le
8aL	bei-
8bJ	-ein-
=4	=4
2g}	-and?
{4d	Wir
=5	=5
8g	müſ-
8g	-ſen
4g	ja
4a	mar-
=6	=6
8aL	-ſchie-
8bJ	.
4b}	-ren
{8b	aus
8b	.
=7	=7
4.a	un-
8g	-ſerm
8aL	Va-
8bJ	-ter-
=8	=8
2g}	-land.
{8bL	Wir
8ccJ	.
=9	=9
4dd	müſ-
4dd	-ſen
4ee	jetʒt
=10	=10
4cc	fah-
4cc}	-ren
{8aL	mit
8bJ	.
=11	=11
4cc	Stuck
4cc	und
4dd	mit
=12	=12
4b	Wa-
4b;}	-gen
{4d	aus
=13	=13
8g	un-
8g	-ſe-
4g	-rem
4a	Quar-
=14	=14
2b}	-tier
{8b	Tapfre
8b	.
=15	=15
4.a	Bay-
8g	-ern
8aL	ſind
8bJ	.
=16	=16
2g}	wir!
{4d	aus
=17	=17
8g	un-
8g	-ſe-
4g	-rem
4a	Quar-
=18	=18
2b}	-tier
{8b	Tapfre
8b	.
=19	=19
4.a	Bay-
8g	-ern
8aL	ſind
8bJ	.
=20	=20
2g}	wir!
==	==
!!!AGN: Staende -, Soldaten -, Kriegs - Lied
!!!ONB: ESAC (Essen Associative Code) Database: ERK3
!!!AMT: simple triple
!!!AIN: vox
!!!EED: Helmut Schaffrath
!!!EEV: 1.0
!!!GTL: Staendelieder (Berufslieder). 1. Soldaten- und Kriegslieder. Soldatenlieder seit dem 30jaehr. Kriege.
!!!URL-scan: https://rosdok.uni-rostock.de/mcrviewer/recordIdentifier/rosdok_ppn745177999/iview2/phys_0218.iview2?x=-128.77276441889308&y=-11.260626820730977&scale=0.5870222003877485&rotation=0&layout=singlePageLayout
!!!ENC: Anna Maria Matuszewska
!!!EEV: 2024/12/27
*-	*-
